src/assets/img/gitIcon.svg

<svg width="61" height="60" viewBox="0 0 61 60" fill="none" xmlns="http://www.w3.org/2000/svg">
<path d="M59.5637 27.3573L33.3321 1.12561C31.8313 -0.375204 29.3516 -0.375204 27.8508 1.12561L22.4348 6.5416L29.3517 13.4584C30.983 12.9364 32.8101 13.2626 34.0499 14.5677C35.3549 15.8728 35.6812 17.6998 35.1592 19.3312L41.8149 25.987C43.4463 25.4649 45.2733 25.7912 46.5784 27.0963C48.4055 28.8581 48.4055 31.7945 46.5784 33.6215C44.7513 35.4486 41.8802 35.4486 40.0531 33.6215C38.6828 32.2512 38.3565 30.2936 39.0743 28.5971L32.8753 22.398V38.7113C33.3321 38.907 33.7236 39.2333 34.1151 39.5595C35.9422 41.3214 35.9422 44.2578 34.1151 46.0848C32.288 47.8467 29.4169 47.8467 27.5898 46.0848C25.7627 44.2578 25.7627 41.3866 27.5898 39.5595C28.0466 39.1028 28.5686 38.7765 29.0906 38.5808V22.0718C28.5686 21.876 28.0466 21.4845 27.5898 21.093C26.2195 19.7227 25.8932 17.7651 26.611 16.0685L19.7595 9.28222L1.81494 27.2268C0.314127 28.7276 0.314127 31.2072 1.81494 32.708L27.9813 58.8744C29.4822 60.3752 31.9618 60.3752 33.4626 58.8744L59.4985 32.8385C61.0645 31.2724 61.0645 28.8581 59.5637 27.3573Z" fill="white"/>
</svg>

<svg width="61" height="60" fill="none" xmlns="http://www.w3.org/2000/svg"><path d="M59.564 27.357 33.332 1.126c-1.5-1.501-3.98-1.501-5.481 0l-5.416 5.416 6.917 6.916c1.631-.522 3.458-.195 4.698 1.11 1.305 1.305 1.631 3.132 1.11 4.763l6.655 6.656c1.631-.522 3.458-.196 4.763 1.11 1.828 1.761 1.828 4.697 0 6.524-1.827 1.828-4.698 1.828-6.525 0-1.37-1.37-1.697-3.327-.979-5.024l-6.199-6.199v16.313c.457.196.849.522 1.24.849 1.827 1.761 1.827 4.698 0 6.525a4.689 4.689 0 0 1-6.525 0c-1.827-1.827-1.827-4.698 0-6.526a4.251 4.251 0 0 1 1.5-.978V22.07c-.521-.195-1.043-.587-1.5-.978-1.37-1.37-1.697-3.328-.979-5.024l-6.852-6.787L1.816 27.227c-1.5 1.5-1.5 3.98 0 5.481L27.98 58.874c1.501 1.501 3.98 1.501 5.482 0L59.498 32.84c1.567-1.567 1.567-3.98.066-5.482Z" fill="#fff"/></svg>
